X:3051
T:Cine Citta (D. Thonon)
C:Ad Vielle Que Pourra: Menage à Quatre
M:3/4
L:1/4
K:C
CD|E2A|B2A|E3-|ECD|EFE |~EDC|B,3-|B,B,C|\
DDD|~DB,C|DDD|~DB,C|DED|C2B,|A,3-|A,:|
AA|A3|DEF|G3|CDE|FE~D|CB,C/D/|E3-|EAA|\
A3|DEF|G3|CDE|FE~D|C2B,|A,3-|A,:|


